public/icon/icon-burger.svg

<svg width="20" height="11" viewBox="0 0 20 11" fill="none" xmlns="http://www.w3.org/2000/svg">
<path d="M11 8.83333H1C0.734784 8.83333 0.48043 8.92113 0.292893 9.07741C0.105357 9.23369 0 9.44565 0 9.66667C0 9.88768 0.105357 10.0996 0.292893 10.2559C0.48043 10.4122 0.734784 10.5 1 10.5H11C11.2652 10.5 11.5196 10.4122 11.7071 10.2559C11.8946 10.0996 12 9.88768 12 9.66667C12 9.44565 11.8946 9.23369 11.7071 9.07741C11.5196 8.92113 11.2652 8.83333 11 8.83333ZM1 2.16667H19C19.2652 2.16667 19.5196 2.07887 19.7071 1.92259C19.8946 1.76631 20 1.55435 20 1.33333C20 1.11232 19.8946 0.900358 19.7071 0.744078C19.5196 0.587798 19.2652 0.5 19 0.5H1C0.734784 0.5 0.48043 0.587798 0.292893 0.744078C0.105357 0.900358 0 1.11232 0 1.33333C0 1.55435 0.105357 1.76631 0.292893 1.92259C0.48043 2.07887 0.734784 2.16667 1 2.16667ZM19 4.66667H1C0.734784 4.66667 0.48043 4.75446 0.292893 4.91074C0.105357 5.06702 0 5.27899 0 5.5C0 5.72101 0.105357 5.93297 0.292893 6.08926C0.48043 6.24554 0.734784 6.33333 1 6.33333H19C19.2652 6.33333 19.5196 6.24554 19.7071 6.08926C19.8946 5.93297 20 5.72101 20 5.5C20 5.27899 19.8946 5.06702 19.7071 4.91074C19.5196 4.75446 19.2652 4.66667 19 4.66667Z" fill="white"/>
</svg>

<svg width="20" height="11" fill="none" xmlns="http://www.w3.org/2000/svg"><path d="M11 8.833H1c-.265 0-.52.088-.707.244a.77.77 0 00-.293.59.77.77 0 00.293.589c.187.156.442.244.707.244h10c.265 0 .52-.088.707-.244a.77.77 0 00.293-.59.77.77 0 00-.293-.589A1.11 1.11 0 0011 8.833zM1 2.167h18c.265 0 .52-.088.707-.244a.77.77 0 00.293-.59.77.77 0 00-.293-.589A1.11 1.11 0 0019 .5H1C.735.5.48.588.293.744a.77.77 0 00-.293.59.77.77 0 00.293.589c.187.156.442.244.707.244zm18 2.5H1c-.265 0-.52.087-.707.244A.77.77 0 000 5.5a.77.77 0 00.293.59c.187.156.442.243.707.243h18c.265 0 .52-.087.707-.244A.77.77 0 0020 5.5a.77.77 0 00-.293-.59A1.11 1.11 0 0019 4.668z" fill="#fff"/></svg>
